static/assets/head_icons_png/man/bizi/1035268.svg

<svg xmlns="http://www.w3.org/2000/svg" width="7" height="10"><g transform="translate(3.5 4.8)"><radialGradient id="a" gradientUnits="userSpaceOnUse" gradientTransform="rotate(2.106 431.768 -6.958) scale(.01362)" spreadMethod="pad" cx="0" cy="0" r="819.2" fx="0" fy="0"><stop offset="0" stop-color="#fbbd9d"/><stop offset="1" stop-color="#fedec1"/></radialGradient><path d="M1.25 1.95Q.5 2.85.2 4.1l-.15.7h-.5l-.25-1-.85-1.6v-.05l-.75-.85.4-.5.05-.15.2-.85-.7-3.65v-.05h.05q-.25-.85 2.2-.9 2.45-.05 2.3 1.1l-.7 1.65-.1 1.1q0 .9.15 1.6L1.6 1l.1.1h.05v.05l.1.1-.6.7" fill="url(#a)"/><radialGradient id="b" gradientUnits="userSpaceOnUse" gradientTransform="rotate(6.577 -66.401 94.93) scale(.01003)" spreadMethod="pad" cx="0" cy="0" r="819.2" fx="0" fy="0"><stop offset="0" stop-color="#fbbd9d"/><stop offset="1" stop-color="#fedec1"/></radialGradient><path d="M1.85 1.25l.65.35.25.3.25.3.1.1.25.8v.1l-.1.2-.15.2-.2.15h-.05l-.1.05q-.1.05-.3.2l-.3.1-.25.1q-.4.1-.8.35l-.85.25h-.2l.15-.7q.3-1.25 1.05-2.15l.6-.7" fill="url(#b)"/><radialGradient id="c" gradientUnits="userSpaceOnUse" gradientTransform="rotate(6.537 -87.752 -96.688) scale(.01049)" spreadMethod="pad" cx="0" cy="0" r="819.2" fx="0" fy="0"><stop offset="0" stop-color="#fbbd9d"/><stop offset="1" stop-color="#fedec1"/></radialGradient><path d="M-.45 4.8H-.5l-.35-.1-.45-.2-.7-.35-.4-.1-.35-.15-.25-.15-.2-.15-.15-.2-.15-.3.3-.8.1-.1.25-.3.2-.25.35-.35.75.85v.05l.85 1.6.25 1" fill="url(#c)"/><radialGradient id="d" gradientUnits="userSpaceOnUse" gradientTransform="matrix(.00609 -.00258 .0028 .0066 2.95 .45)" spreadMethod="pad" cx="0" cy="0" r="819.2" fx="210473" fy="0"><stop offset=".337" stop-color="#f9c29f"/><stop offset="1" stop-color="#fedec1" stop-opacity="0"/></radialGradient><path d="M2.8 3.75l-.1-.25.15-.1.1-.1.05-.15.05-.15-.25-.5-.2-.3-.2-.05-.25.05-.35.6-.3-.6-.1-.05-.2-.25-.15-.2H1l-.1-.6V.65L.85-.2v-1.55q.05-.75.7-1.5l.65-.45-.7 1.65-.1 1.1q0 .9.15 1.6L1.6 1l.1.1h.05v.05l.75.45.25.3.25.3.1.1.25.8v.1l-.1.2-.15.2-.2.15h-.1" fill="url(#d)"/><radialGradient id="e" gradientUnits="userSpaceOnUse" gradientTransform="matrix(.00227 0 0 .00227 -.05 4.55)" spreadMethod="pad" cx="0" cy="0" r="819.2" fx="0" fy="0"><stop offset="0" stop-color="#f39b61"/><stop offset="1" stop-color="#f8be98"/></radialGradient><path d="M-2.9 3.55l.3-.25 1.05.25 2.7.1h.1l.2-.1.05-.05 1-.2.2.2.1.25h.05l-.1.05q-.1.05-.3.2l-.3.1-.25.1q-.4.1-.8.35l-.85.25H-.5l-.35-.1-.45-.2-.7-.35-.4-.1-.35-.15-.25-.15-.2-.15.2.15h.05l.05-.2m1.5.6q.25.1.6.45l-.7-.75-.95-.15-.15.1.05.1.2.1h.4l.55.15m3.7-.45q-.6-.2-1.2.35l-.6.55.25-.1.6-.3.55-.2.3-.05.15-.05.1-.1-.15-.1" fill="url(#e)"/><radialGradient id="f" gradientUnits="userSpaceOnUse" gradientTransform="matrix(.00475 0 0 .00475 -.2 4.4)" spreadMethod="pad" cx="0" cy="0" r="819.2" fx="0" fy="0"><stop offset=".239" stop-color="#a66842"/><stop offset="1" stop-color="#d19f81"/></radialGradient><path d="M-1.95 4h-.4l-.2-.1-.05-.1.15-.1.95.15.7.75q-.35-.35-.6-.45L-1.95 4m4.4-.2l-.1.1-.15.05-.3.05-.55.2-.6.3-.25.1.6-.55q.6-.55 1.2-.35l.15.1" fill="url(#f)"/><radialGradient id="g" gradientUnits="userSpaceOnUse" gradientTransform="matrix(.00444 .00075 -.00104 .00632 -2.55 .65)" spreadMethod="pad" cx="0" cy="0" r="819.2" fx="210473" fy="0"><stop offset=".337" stop-color="#f9c29f"/><stop offset="1" stop-color="#fedec1" stop-opacity="0"/></radialGradient><path d="M-2.95 3.75H-3l-.2-.15-.15-.2-.15-.3.3-.8.1-.1.25-.3.2-.25.75-.85.05-.15.2-.85-.7-3.7Q-1-3.15-1.05.65l-.05.8v.2l-.25.25-.25.3-.2.4q-.2-.3-.55-.3-.3 0-.55.3l-.25.5.1.1.15.35-.05.2" fill="url(#g)"/><radialGradient id="h" gradientUnits="userSpaceOnUse" gradientTransform="matrix(.00076 0 0 .00308 -.05 -.8)" spreadMethod="pad" cx="0" cy="0" r="819.2" fx="0" fy="0"><stop offset="0" stop-color="#fff" stop-opacity=".373"/><stop offset="1" stop-color="#fff" stop-opacity="0"/></radialGradient><path d="M-.05-3.1l.35.65L.45-.8.3.85l-.35.7-.4-.7-.1-1.65.1-1.65.4-.65" fill="url(#h)"/><radialGradient id="i" gradientUnits="userSpaceOnUse" gradientTransform="matrix(.001 0 0 .001 0 2.75)" spreadMethod="pad" cx="0" cy="0" r="819.2" fx="0" fy="0"><stop offset="0" stop-color="#fff" stop-opacity=".671"/><stop offset="1" stop-color="#fff" stop-opacity="0"/></radialGradient><path d="M-.85 2.75l.25-.6q.25-.25.6-.25l.65.25.25.6-.25.6-.65.3-.6-.3-.25-.6" fill="url(#i)"/><radialGradient id="j" gradientUnits="userSpaceOnUse" gradientTransform="matrix(.00327 0 0 .00426 .75 .4)" spreadMethod="pad" cx="0" cy="0" r="819.2" fx="0" fy="0"><stop offset="0" stop-color="#d66d3e" stop-opacity=".812"/><stop offset="1" stop-color="#ffdec2" stop-opacity="0"/></radialGradient><path d="M2.15-.1L3.5 1.45l-.5.3-1.15-.65.1 1.35Q1.15 2.05.9.65V-.9l.1-.5q.45-2 2.3-2.25-1.35 1.1-1.55 2.7.05.55.4.85" fill="url(#j)"/></g></svg>

<?xml version="1.0" encoding="utf-8"?>
<svg version="1.1" id="Layer_1"
xmlns="http://www.w3.org/2000/svg"
xmlns:xlink="http://www.w3.org/1999/xlink"
xmlns:author="http://www.sothink.com"
width="7px" height="10px"
xml:space="preserve">
<g id="488" transform="matrix(1, 0, 0, 1, 3.5, 4.8)">
<radialGradient
id="RadialGradID_4188" gradientUnits="userSpaceOnUse" gradientTransform="matrix(0.0136108, 0.000473022, -0.000473022, 0.0136108, 0.05, -15)" spreadMethod ="pad" cx="0" cy="0" r="819.2" fx="0" fy="0" >
<stop  offset="0"  style="stop-color:#FBBD9D;stop-opacity:1" />
<stop  offset="1"  style="stop-color:#FEDEC1;stop-opacity:1" />
</radialGradient>
<path style="fill:url(#RadialGradID_4188) " d="M1.25,1.95Q0.5 2.85 0.2 4.1L0.05 4.8L-0.45 4.8L-0.7 3.8L-1.55 2.2L-1.55 2.15L-2.3 1.3L-1.9 0.8L-1.85 0.65L-1.65 -0.2L-2.35 -3.85L-2.35 -3.9L-2.3 -3.9Q-2.55 -4.75 -0.1 -4.8Q2.35 -4.85 2.2 -3.7L1.5 -2.05L1.4 -0.95Q1.4 -0.05 1.55 0.65L1.6 1L1.7 1.1L1.75 1.1L1.75 1.15L1.85 1.25L1.25 1.95" />
<radialGradient
id="RadialGradID_4189" gradientUnits="userSpaceOnUse" gradientTransform="matrix(0.00996399, 0.00112915, -0.00112915, 0.00996399, 10.25, 8.1)" spreadMethod ="pad" cx="0" cy="0" r="819.2" fx="0" fy="0" >
<stop  offset="0"  style="stop-color:#FBBD9D;stop-opacity:1" />
<stop  offset="1"  style="stop-color:#FEDEC1;stop-opacity:1" />
</radialGradient>
<path style="fill:url(#RadialGradID_4189) " d="M1.85,1.25L2.5 1.6L2.75 1.9L3 2.2L3.1 2.3L3.35 3.1L3.35 3.2L3.25 3.4L3.1 3.6L2.9 3.75L2.85 3.75L2.75 3.8Q2.65 3.85 2.45 4L2.15 4.1L1.9 4.2Q1.5 4.3 1.1 4.55L0.25 4.8L0.05 4.8L0.2 4.1Q0.5 2.85 1.25 1.95L1.85 1.25" />
<radialGradient
id="RadialGradID_4190" gradientUnits="userSpaceOnUse" gradientTransform="matrix(0.0104218, 0.00117493, -0.00117493, 0.0104218, -11.4, 9.2)" spreadMethod ="pad" cx="0" cy="0" r="819.2" fx="0" fy="0" >
<stop  offset="0"  style="stop-color:#FBBD9D;stop-opacity:1" />
<stop  offset="1"  style="stop-color:#FEDEC1;stop-opacity:1" />
</radialGradient>
<path style="fill:url(#RadialGradID_4190) " d="M-0.45,4.8L-0.5 4.8L-0.85 4.7L-1.3 4.5L-2 4.15L-2.4 4.05L-2.75 3.9L-3 3.75L-3.2 3.6L-3.35 3.4L-3.5 3.1L-3.2 2.3L-3.1 2.2L-2.85 1.9L-2.65 1.65L-2.3 1.3L-1.55 2.15L-1.55 2.2L-0.7 3.8L-0.45 4.8" />
<radialGradient
id="RadialGradID_4191" gradientUnits="userSpaceOnUse" gradientTransform="matrix(0.00608826, -0.00257874, 0.00280762, 0.00660706, 2.95, 0.45)" spreadMethod ="pad" cx="0" cy="0" r="819.2" fx="210473" fy="0" >
<stop  offset="0.337255"  style="stop-color:#F9C29F;stop-opacity:1" />
<stop  offset="1"  style="stop-color:#FEDEC1;stop-opacity:0" />
</radialGradient>
<path style="fill:url(#RadialGradID_4191) " d="M2.8,3.75L2.7 3.5L2.85 3.4L2.95 3.3L3 3.15L3.05 3L2.8 2.5L2.6 2.2L2.4 2.15L2.15 2.2L1.8 2.8L1.5 2.2L1.4 2.15L1.2 1.9L1.05 1.7L1 1.7L0.9 1.1L0.9 0.65L0.85 -0.2L0.85 -1.75Q0.9 -2.5 1.55 -3.25L2.2 -3.7L1.5 -2.05L1.4 -0.95Q1.4 -0.05 1.55 0.65L1.6 1L1.7 1.1L1.75 1.1L1.75 1.15L2.5 1.6L2.75 1.9L3 2.2L3.1 2.3L3.35 3.1L3.35 3.2L3.25 3.4L3.1 3.6L2.9 3.75L2.85 3.75L2.8 3.75" />
<radialGradient
id="RadialGradID_4192" gradientUnits="userSpaceOnUse" gradientTransform="matrix(0.00227356, 0, 0, 0.00227356, -0.05, 4.55)" spreadMethod ="pad" cx="0" cy="0" r="819.2" fx="0" fy="0" >
<stop  offset="0"  style="stop-color:#F39B61;stop-opacity:1" />
<stop  offset="1"  style="stop-color:#F8BE98;stop-opacity:1" />
</radialGradient>
<path style="fill:url(#RadialGradID_4192) " d="M-2.9,3.55L-2.6 3.3L-1.55 3.55L1.15 3.65L1.25 3.65L1.45 3.55L1.5 3.5L2.5 3.3L2.7 3.5L2.8 3.75L2.85 3.75L2.75 3.8Q2.65 3.85 2.45 4L2.15 4.1L1.9 4.2Q1.5 4.3 1.1 4.55L0.25 4.8L-0.5 4.8L-0.85 4.7L-1.3 4.5L-2 4.15L-2.4 4.05L-2.75 3.9L-3 3.75L-3.2 3.6L-3 3.75L-2.95 3.75L-2.9 3.55M-1.4,4.15Q-1.15 4.25 -0.8 4.6L-1.5 3.85L-2.45 3.7L-2.6 3.8L-2.55 3.9L-2.35 4L-1.95 4L-1.4 4.15M2.3,3.7Q1.7 3.5 1.1 4.05L0.5 4.6L0.75 4.5L1.35 4.2L1.9 4L2.2 3.95L2.35 3.9L2.45 3.8L2.3 3.7" />
<radialGradient
id="RadialGradID_4193" gradientUnits="userSpaceOnUse" gradientTransform="matrix(0.00474548, 0, 0, 0.00474548, -0.2, 4.4)" spreadMethod ="pad" cx="0" cy="0" r="819.2" fx="0" fy="0" >
<stop  offset="0.239216"  style="stop-color:#A66842;stop-opacity:1" />
<stop  offset="1"  style="stop-color:#D19F81;stop-opacity:1" />
</radialGradient>
<path style="fill:url(#RadialGradID_4193) " d="M-1.95,4L-2.35 4L-2.55 3.9L-2.6 3.8L-2.45 3.7L-1.5 3.85L-0.8 4.6Q-1.15 4.25 -1.4 4.15L-1.95 4M2.45,3.8L2.35 3.9L2.2 3.95L1.9 4L1.35 4.2L0.75 4.5L0.5 4.6L1.1 4.05Q1.7 3.5 2.3 3.7L2.45 3.8" />
<radialGradient
id="RadialGradID_4194" gradientUnits="userSpaceOnUse" gradientTransform="matrix(0.00444031, 0.000747681, -0.0010376, 0.00631714, -2.55, 0.65)" spreadMethod ="pad" cx="0" cy="0" r="819.2" fx="210473" fy="0" >
<stop  offset="0.337255"  style="stop-color:#F9C29F;stop-opacity:1" />
<stop  offset="1"  style="stop-color:#FEDEC1;stop-opacity:0" />
</radialGradient>
<path style="fill:url(#RadialGradID_4194) " d="M-2.95,3.75L-3 3.75L-3.2 3.6L-3.35 3.4L-3.5 3.1L-3.2 2.3L-3.1 2.2L-2.85 1.9L-2.65 1.65L-1.9 0.8L-1.85 0.65L-1.65 -0.2L-2.35 -3.9Q-1 -3.15 -1.05 0.65L-1.1 1.45L-1.1 1.65L-1.35 1.9L-1.6 2.2L-1.8 2.6Q-2 2.3 -2.35 2.3Q-2.65 2.3 -2.9 2.6L-3.15 3.1L-3.05 3.2L-2.9 3.55L-2.95 3.75" />
<radialGradient
id="RadialGradID_4195" gradientUnits="userSpaceOnUse" gradientTransform="matrix(0.000762939, 0, 0, 0.00308228, -0.05, -0.8)" spreadMethod ="pad" cx="0" cy="0" r="819.2" fx="0" fy="0" >
<stop  offset="0"  style="stop-color:#FFFFFF;stop-opacity:0.372549" />
<stop  offset="1"  style="stop-color:#FFFFFF;stop-opacity:0" />
</radialGradient>
<path style="fill:url(#RadialGradID_4195) " d="M-0.05,-3.1L0.3 -2.45L0.45 -0.8L0.3 0.85L-0.05 1.55L-0.45 0.85L-0.55 -0.8L-0.45 -2.45L-0.05 -3.1" />
<radialGradient
id="RadialGradID_4196" gradientUnits="userSpaceOnUse" gradientTransform="matrix(0.00100708, 0, 0, 0.00100708, 0, 2.75)" spreadMethod ="pad" cx="0" cy="0" r="819.2" fx="0" fy="0" >
<stop  offset="0"  style="stop-color:#FFFFFF;stop-opacity:0.670588" />
<stop  offset="1"  style="stop-color:#FFFFFF;stop-opacity:0" />
</radialGradient>
<path style="fill:url(#RadialGradID_4196) " d="M-0.85,2.75L-0.6 2.15Q-0.35 1.9 0 1.9L0.65 2.15L0.9 2.75L0.65 3.35L0 3.65L-0.6 3.35L-0.85 2.75" />
<radialGradient
id="RadialGradID_4197" gradientUnits="userSpaceOnUse" gradientTransform="matrix(0.00326538, 0, 0, 0.0042572, 0.75, 0.4)" spreadMethod ="pad" cx="0" cy="0" r="819.2" fx="0" fy="0" >
<stop  offset="0"  style="stop-color:#D66D3E;stop-opacity:0.811765" />
<stop  offset="1"  style="stop-color:#FFDEC2;stop-opacity:0" />
</radialGradient>
<path style="fill:url(#RadialGradID_4197) " d="M2.15,-0.1L3.5 1.45L3 1.75L1.85 1.1L1.95 2.45Q1.15 2.05 0.9 0.65L0.9 -0.9L1 -1.4Q1.45 -3.4 3.3 -3.65Q1.95 -2.55 1.75 -0.95Q1.8 -0.4 2.15 -0.1" />
</g>
</svg>
